X: 5
T: Jackets Green, The
Z: ShaneT
S: https://thesession.org/tunes/8683#setting28851
R: barndance
M: 4/4
L: 1/8
K: Gmaj
ef||g3f e2dB|A3G E2GA|B3B A3A|G6 d2|
d3B d2ef|g3f e3d|efed BABd|e6 d2|
d3B d2ef|g3f e3d|efed BABd|e4 edef|
g3f e2dB|A3G E2GA|B3B A3A|G8||
